X:1
T:Title
%%score { ( 1 3 ) | 2 }
L:1/8
Q:1/4=100
M:4/4
K:G
V:1 treble nm="Grand Piano"
V:3 treble 
V:2 treble 
V:1
 B2 B>A GDGA | G2 F2 F4 | [Fc]2 [Fc]>B AD[DG][DA] | [DB]6 z2 | d2 d>c BdcB | A2 B2 c4 | %6
w: Chas.~C.~Ackley * * * * * *||||||
 [DGB]2 [CDA][B,DG] [A,DF]2 [CFA]2 | [B,G]6 z2 | [DBd]>[DAc] B2 B>A G2 | FGAB [Ac]4 | %10
w: ||||
 [Ac]>[GB] [FA]2 [FA]>[DG] [DF]2 | [DG]ABc d4 | B2 B>B .c.c z2 | ^c2 c2 d4 | e2 [Ec][EA] G2 z C | %15
w: |||||
 [B,G]6 z2 |] %16
w: |
V:2
 [G,DG]2 [G,DG]>[G,CD] [G,B,D][G,B,][K:bass][G,B,D][G,B,D] | [A,CD]2 [A,CD]2 [A,CD]4 | %2
 [D,A,]2 [D,A,]>[D,G,D] [D,F,D][C,F,][B,,G,][A,,F,] | [G,,G,]6 z2 | %4
 [G,B,G]2 [G,B,G]>[G,EG] [G,DG][B,DG][A,DF][G,DG] | [CE]2 [B,E^G]2 [A,EA]4 | D,2 D,D, D,2 D,2 | %7
 G,6 z2 | G,>G, [G,DG]2 [G,DG]>[G,CE] [G,B,D]2 | [B,CD][B,D][A,DF][G,DG][K:bass] [F,D]4 | %10
 [D,D]>[D,D] [D,D]2 [D,C]>[D,B,] [D,A,]2 | [B,,G,][D,F,D][K:treble][G,D][G,A,D] [G,B,D]4 | %12
 [G,DG]2 [G,DG]>[G,DG] .[A,DF].[A,DF] z2 | [_B,EG]2 [B,EG]2 [=B,DG]4 | %14
 [CG]2[K:bass] [C,G,][C,C] [D,B,D]2 .[D,A,D]2 | [G,,G,]6 z2 |] %16
V:3
 x8 | x8 | x8 | x8 | x8 | x8 | x8 | x8 | x8 | x8 | x8 | x8 | x8 | x8 | z4 z2 F2 | x8 |] %16

